X:1
T:Title
L:1/8
M:2/4
K:Ab
V:1 treble nm="Grand Piano"
V:1
 z2[Q:1/4=100] D>C | A3 A | A2 GF | G2 G2- | G2 D>C | B3 G | =E2 D2 | C2 G2 | F4- | F2 D>C | A3 A | %11
 A2 GF | G2 G2- | G2 D>C | B3 G | =E2 D2 | C2 G2 | F4- | F2 A>A | A4- | A2 B>B | B4- | B2 c>c | %23
 c3 B | =A2 ec | e2 d2- | d2 B>B | B4- | B2 d>d | d4- | d2 d>d | e3 d | B2 dB | d2 c2- | c2 D>C | %35
 A3 A | A2 GF | G2 G2- | G2 D>C | B3 G | =E2 D2 | C2 G2 | F4- | F2 z2 |] %44

